X:631
T: Damacheng
N: C2153
O: China, Hubei Macheng
S: I, 404, 1)]
R: Xiaodiao, Erge]
M: 2/4
L: 1/16
K: G
A2GEG4 | E2GED4 |
D2AGD4 | D2AGE4 |
B2A2EGDE | B2E2E4 |
D2G2EGE2G2E2 | EGE2D4D4
B2E2D2E2 | A2D2E2G2 | D2G2EGE2G2E2

